build/svg/cmd/sc_combine.svg

<?xml version="1.0" encoding="UTF-8" standalone="no"?>
<svg
   xmlns:dc="http://purl.org/dc/elements/1.1/"
   xmlns:cc="http://creativecommons.org/ns#"
   xmlns:rdf="http://www.w3.org/1999/02/22-rdf-syntax-ns#"
   xmlns:svg="http://www.w3.org/2000/svg"
   xmlns="http://www.w3.org/2000/svg"
   xmlns:sodipodi="http://sodipodi.sourceforge.net/DTD/sodipodi-0.dtd"
   xmlns:inkscape="http://www.inkscape.org/namespaces/inkscape"
   viewBox="0 0 16 16"
   version="1.1"
   id="svg6"
   sodipodi:docname="sc_combine.svg"
   inkscape:export-filename="/home/jupiter007/Libreoffice yaru theme fullcolor/build/cmd/sc_combine.png"
   inkscape:export-xdpi="96"
   inkscape:export-ydpi="96"
   inkscape:version="0.92.5 (2060ec1f9f, 2020-04-08)">
  <metadata
     id="metadata12">
    <rdf:RDF>
      <cc:Work
         rdf:about="">
        <dc:format>image/svg+xml</dc:format>
        <dc:type
           rdf:resource="http://purl.org/dc/dcmitype/StillImage" />
      </cc:Work>
    </rdf:RDF>
  </metadata>
  <defs
     id="defs10" />
  <sodipodi:namedview
     pagecolor="#ffffff"
     bordercolor="#666666"
     borderopacity="1"
     objecttolerance="10"
     gridtolerance="10"
     guidetolerance="10"
     inkscape:pageopacity="0"
     inkscape:pageshadow="2"
     inkscape:window-width="1920"
     inkscape:window-height="1011"
     id="namedview8"
     showgrid="true"
     inkscape:zoom="20.85965"
     inkscape:cx="-9.1984137"
     inkscape:cy="9.4616996"
     inkscape:window-x="1920"
     inkscape:window-y="32"
     inkscape:window-maximized="1"
     inkscape:current-layer="svg6">
    <inkscape:grid
       type="xygrid"
       id="grid898" />
  </sodipodi:namedview>
  <path
     style="opacity:1;fill:#6d6d6d;fill-opacity:1;stroke:none;stroke-width:2;stroke-linejoin:round;stroke-miterlimit:4;stroke-dasharray:none;stroke-opacity:1"
     d="M 2 5 C 1.446 5 1 5.446 1 6 L 1 14 C 1 14.554 1.446 15 2 15 L 10 15 C 10.554 15 11 14.554 11 14 L 11 6 C 11 5.446 10.554 5 10 5 L 2 5 z M 2 6 L 10 6 L 10 14 L 2 14 L 2 6 z "
     id="rect900" />
  <path
     style="opacity:1;fill:#6d6d6d;fill-opacity:1;stroke:none;stroke-width:2;stroke-linejoin:round;stroke-miterlimit:4;stroke-dasharray:none;stroke-opacity:1"
     d="M 9.5 1 A 5.5 5.5 0 0 0 4 6.5 A 5.5 5.5 0 0 0 9.5 12 A 5.5 5.5 0 0 0 15 6.5 A 5.5 5.5 0 0 0 9.5 1 z M 9.5 2 A 4.5 4.5 0 0 1 14 6.5 A 4.5 4.5 0 0 1 9.5 11 A 4.5 4.5 0 0 1 5 6.5 A 4.5 4.5 0 0 1 9.5 2 z "
     id="path905" />
  <path
     style="opacity:1;fill:#fee581;fill-opacity:1;stroke:none;stroke-width:2;stroke-linejoin:round;stroke-miterlimit:4;stroke-dasharray:none;stroke-opacity:1"
     d="M 9.5,2 C 7.5952938,2.0026726 5.8985727,3.2042233 5.2636719,5 H 10 c 0.554,0 1,0.446 1,1 v 4.736328 C 12.795777,10.101427 13.997327,8.4047062 14,6.5 14,4.0147186 11.985281,2 9.5,2 Z"
     id="path910"
     inkscape:connector-curvature="0"
     sodipodi:nodetypes="ccssccc" />
  <path
     style="opacity:1;fill:#fee581;fill-opacity:1;stroke:none;stroke-width:2;stroke-linejoin:round;stroke-miterlimit:4;stroke-dasharray:none;stroke-opacity:1"
     d="m 2,6 v 8 h 8 V 11.974609 C 9.8338051,11.990658 9.6669657,11.99913 9.5,12 6.4624339,12 4,9.5375661 4,6.5 4.0015189,6.3330046 4.0106429,6.1661651 4.0273438,6 Z"
     id="rect917"
     inkscape:connector-curvature="0"
     sodipodi:nodetypes="cccccccc" />
</svg>

<svg xmlns="http://www.w3.org/2000/svg" viewBox="0 0 16 16"><path d="M2 5c-.554 0-1 .446-1 1v8c0 .554.446 1 1 1h8c.554 0 1-.446 1-1V6c0-.554-.446-1-1-1H2zm0 1h8v8H2V6z" fill="#6d6d6d"/><path d="M9.5 1A5.5 5.5 0 004 6.5 5.5 5.5 0 009.5 12 5.5 5.5 0 0015 6.5 5.5 5.5 0 009.5 1zm0 1A4.5 4.5 0 0114 6.5 4.5 4.5 0 019.5 11 4.5 4.5 0 015 6.5 4.5 4.5 0 019.5 2z" fill="#6d6d6d"/><path d="M9.5 2a4.5 4.5 0 00-4.236 3H10c.554 0 1 .446 1 1v4.736A4.5 4.5 0 0014 6.5 4.5 4.5 0 009.5 2zM2 6v8h8v-2.025a5.5 5.5 0 01-.5.025A5.5 5.5 0 014 6.5a5.5 5.5 0 01.027-.5z" fill="#fee581"/></svg>
